X: 21102
T: Kangaroo, The
R: polka
M: 2/4
K: Dminor
|:d>c Af|de dc|AG/F/ cA|G2 A/B/c|
d>e dc|Af ef|Ac AF|1 D2 A/B/c:|2 D2 D2||
|:ga/g/ fd|cf af|ba/g/ fd/f/|g2 gf|
ga/g/ fd|cf ef|Ac AF|1 D2 D2:|2 D2 A/B/c||

